X: 46
T:Barney O'Finnegan
M:6/8
L:1/8
B:"O'Neill's 46"
N:"Slow" "collected by F. O'Neill"
Z:"Transcribed by Norbert Paap, norbertp@bdu.uva.nl"
K:Dmix
c | Bdc BAG | D3-D2 c | Bdc BAG | B>cd- dzc |
Bdc BAG | c3-c2 c/2c/2 | c>BA BAG | FED- Dz ||
D | G2 G/2G/2 GAG | F3-F2 D | G2 G/2G/2 GAB | c>BA- Azd |
G2 G/2G/2 GAG | F3-F2 G | A2 A/2A/2 ABG | F>ED- Dz ||


